usr/share/icons/biglinux-icons-material-dark/16/actions/transform-shear-right.svg

<svg xmlns="http://www.w3.org/2000/svg" viewBox="0 0 16 16">
<defs id="defs3051">
<style id="current-color-scheme" type="text/css">
.ColorScheme-Text{color:#dedede}
</style>
</defs>
<path d="M5 2v3h1V3h7v6h-1v1h2V2zM4 6l-2 8h8l2-8zm1 1h5.5L9 13H3.5z" class="ColorScheme-Text" style="fill:currentColor;fill-opacity:1;stroke:none"/>
</svg>

<svg xmlns="http://www.w3.org/2000/svg" viewBox="0 0 16 16">
  <defs id="defs3051">
    <style type="text/css" id="current-color-scheme">
      .ColorScheme-Text {
        color:#dedede;
      }
      </style>
  </defs>
 <path style="fill:currentColor;fill-opacity:1;stroke:none" 
       d="M 5 2 L 5 5 L 6 5 L 6 3 L 13 3 L 13 9 L 12 9 L 12 10 L 14 10 L 14 2 L 5 2 z M 4 6 L 2 14 L 10 14 L 12 6 L 4 6 z M 5 7 L 10.5 7 L 9 13 L 3.5 13 L 5 7 z "
     class="ColorScheme-Text"
     />
</svg>
